<?xml version="1.0" encoding="UTF-8"?>
<map version="1.10" tiledversion="1.11.2" orientation="isometric" renderorder="right-down" width="10" height="10" tilewidth="512" tileheight="256" infinite="0" nextlayerid="2" nextobjectid="1">
 <tileset firstgid="1" source="iso-sprite-sheet.tsx"/>
 <layer id="1" name="Tile Layer 1" width="10" height="10">
  <data encoding="csv">
1,1,1,1,1,1,1,1,1,1,
1,1,1,1,1,1,1,1,1,1,
1,1,1,1,1,1,1,1,1,1,
1,1,1,1,1,1,1,1,1,1,
1,1,1,1,1,1,1,1,1,1,
1,1,1,1,1,1,1,1,1,1,
1,1,1,1,1,1,1,1,1,1,
1,1,1,1,1,1,1,1,1,1,
1,1,1,1,1,1,1,1,1,1,
1,1,1,1,1,1,1,1,1,1
</data>
 </layer>
</map>
